X:257
T:no name
R:jig
D:Gan Ainm
Z:id:hn-jig-257
M:6/8
K:Bm
~B3 bfd|Bdf ecA|~B3 baf|~g3 fdc|
~B3 bfd|Bdf ecA|~B3 cde|dfa ecA:|
|:FBB BAB|cBc Ace|a^gf ecA|cBc BAE|
FBB BAB|cBc Ace|a^gf ecA|cBA B2A:|

